X: 1
T: the Reunion
C: George M Anderson 2009
R: jig
Z: 2013 John Chambers <jc:trillian.mit.edu>
B: RSCDS "5 for 2009"
M: 6/8
L: 1/8
K: D
"(A7)"FG |\
"D"Afe dAF | "Em"GEE "E7"Eed | "A7"cBA GFE | "D"DFB "A7"AFG |\
"D"Afe dAF | "Em"GEE "E7"Eed | "A7"cBA GFE | "D"D3 z :|
"B7"GF |\
"Em"Eee "A"ecA | "D"Aff fdA | "G"Bgg "D"Aff | "Em"edB "(B7)"AGF |\
"Em"Eee "A"ecA | "D"Aff fdA | "Em"Bed "A7"cBc | "D"d3 z ||
"B7"GF |\
"Em"Eee "A"ecA |  "D"Aff     fdA | "G"Bgg "D"Aff | "E7"edB "A7"AFG |\
"D"Afe "Bm"dAF | "Em"GEE "E7"Eed | "A7"cBA GFE | "D"D3 z :|
